static/images/main1.svg

<svg height="157" viewBox="0 0 149 157" width="149" xmlns="http://www.w3.org/2000/svg" xmlns:xlink="http://www.w3.org/1999/xlink"><linearGradient id="a" x1="0%" x2="149.460671%" y1="0%" y2="71.875%"><stop offset="0" stop-color="#00eaf8"/><stop offset="1" stop-color="#6d42ef"/></linearGradient><g fill="none" fill-rule="evenodd" transform="translate(2)"><path d="m0 115v24c0 8.836556 7.21319014 16 16.1111111 16h112.7777779c8.897921 0 16.111111-7.163444 16.111111-16v-24" stroke="url(#a)" stroke-linecap="round" stroke-linejoin="round" stroke-width="4"/><path d="m126.321131 63h-112.321131c-1.1045695 0-2-.8954305-2-2s.8954305-2 2-2h112.321131l-36.729943-36.5693676c-.7882507-.7848046-.7882507-2.0572243 0-2.8420289.7882507-.7848047 2.0662576-.7848047 2.8545083 0l39.9631157 39.7884052c.419857.4180211.616079.9743828.588668 1.5217128.001673.0335485.00252.0673146.00252.1012785s-.000847.06773-.00252.1012785c.027411.54733-.168811 1.1036917-.588668 1.5217128l-39.9631157 39.7884057c-.7882507.784804-2.0662576.784804-2.8545083 0-.7882507-.784805-.7882507-2.057225 0-2.8420294z" fill="url(#a)" transform="matrix(0 1 -1 0 133.5 -11.5)"/></g></svg>

<?xml version="1.0" encoding="UTF-8"?>
<svg width="149px" height="157px" viewBox="0 0 149 157" version="1.1" xmlns="http://www.w3.org/2000/svg" xmlns:xlink="http://www.w3.org/1999/xlink">
    <!-- Generator: sketchtool 46.2 (44496) - http://www.bohemiancoding.com/sketch -->
    <title>F49D1996-DC32-4392-874B-10F7433C9FB9</title>
    <desc>Created with sketchtool.</desc>
    <defs>
        <linearGradient x1="0%" y1="0%" x2="149.460671%" y2="71.875%" id="linearGradient-1">
            <stop stop-color="#00EAF8" offset="0%"></stop>
            <stop stop-color="#6D42EF" offset="100%"></stop>
        </linearGradient>
    </defs>
    <g id="Page-1" stroke="none" stroke-width="1" fill="none" fill-rule="evenodd">
        <g id="Home-Page-10/04/2017-screen-Install-Rakam" transform="translate(-719.000000, -1068.000000)">
            <g id="How-Rakam-Works" transform="translate(166.000000, 757.000000)">
                <g id="create-a-project" transform="translate(33.000000, 113.000000)">
                    <g id="download" transform="translate(522.000000, 198.000000)">
                        <g>
                            <path d="M0,115 L0,139 C0,147.836556 7.21319014,155 16.1111111,155 L128.888889,155 C137.78681,155 145,147.836556 145,139 L145,115" id="Shape" stroke="url(#linearGradient-1)" stroke-width="4" stroke-linecap="round" stroke-linejoin="round"></path>
                            <path d="M126.321131,63 L14,63 C12.8954305,63 12,62.1045695 12,61 C12,59.8954305 12.8954305,59 14,59 L126.321131,59 L89.591188,22.4306324 C88.8029373,21.6458278 88.8029373,20.3734081 89.591188,19.5886035 C90.3794387,18.8037988 91.6574456,18.8037988 92.4456963,19.5886035 L132.408812,59.3770087 C132.828669,59.7950298 133.024891,60.3513915 132.99748,60.8987215 C132.999153,60.93227 133,60.9660361 133,61 C133,61.0339639 132.999153,61.06773 132.99748,61.1012785 C133.024891,61.6486085 132.828669,62.2049702 132.408812,62.6229913 L92.4456963,102.411397 C91.6574456,103.196201 90.3794387,103.196201 89.591188,102.411397 C88.8029373,101.626592 88.8029373,100.354172 89.591188,99.5693676 L126.321131,63 Z" id="Combined-Shape" fill="url(#linearGradient-1)" transform="translate(72.500000, 61.000000) rotate(-270.000000) translate(-72.500000, -61.000000) "></path>
                        </g>
                    </g>
                </g>
            </g>
        </g>
    </g>
</svg>
